svgs/light/house-building.svg

<svg xmlns="http://www.w3.org/2000/svg" viewBox="0 0 640 512"><!--! Font Awesome Pro 6.6.0 by @fontawesome - https://fontawesome.com License - https://fontawesome.com/license (Commercial License) Copyright 2024 Fonticons, Inc. --><path d="M320 32l256 0c17.7 0 32 14.3 32 32l0 384c0 17.7-14.3 32-32 32l-161.6 0c-2.4 11.8-7.4 22.7-14.4 32l176 0c35.3 0 64-28.7 64-64l0-384c0-35.3-28.7-64-64-64L320 0c-35.3 0-64 28.7-64 64l0 31.3 32 29.3L288 64c0-17.7 14.3-32 32-32zM496 208c-17.7 0-32 14.3-32 32l0 32c0 17.7 14.3 32 32 32l32 0c17.7 0 32-14.3 32-32l0-32c0-17.7-14.3-32-32-32l-32 0zm0 32l32 0 0 32-32 0 0-32zM464 368l0 32c0 17.7 14.3 32 32 32l32 0c17.7 0 32-14.3 32-32l0-32c0-17.7-14.3-32-32-32l-32 0c-17.7 0-32 14.3-32 32zm64 0l0 32-32 0 0-32 32 0zM368 80c-17.7 0-32 14.3-32 32l0 32c0 17.7 14.3 32 32 32l32 0c17.7 0 32-14.3 32-32l0-32c0-17.7-14.3-32-32-32l-32 0zm0 32l32 0 0 32-32 0 0-32zm96 0l0 32c0 17.7 14.3 32 32 32l32 0c17.7 0 32-14.3 32-32l0-32c0-17.7-14.3-32-32-32l-32 0c-17.7 0-32 14.3-32 32zm64 0l0 32-32 0 0-32 32 0zM32 284.2c0-9 3.8-17.5 10.4-23.6l128-117.3c12.2-11.2 31-11.2 43.2 0l128 117.3c6.6 6.1 10.4 14.6 10.4 23.6L352 448c0 17.7-14.3 32-32 32L64 480c-17.7 0-32-14.3-32-32l0-163.8zM0 448c0 35.3 28.7 64 64 64l256 0c35.3 0 64-28.7 64-64l0-163.8c0-17.9-7.5-35.1-20.8-47.2l-128-117.3c-24.5-22.4-62-22.4-86.5 0L20.8 237C7.5 249.1 0 266.2 0 284.2L0 448zM224 288l0 64-64 0 0-64 64 0zm-64-32c-17.7 0-32 14.3-32 32l0 64c0 17.7 14.3 32 32 32l64 0c17.7 0 32-14.3 32-32l0-64c0-17.7-14.3-32-32-32l-64 0z"/></svg>

<svg xmlns="http://www.w3.org/2000/svg" viewBox="0 0 640 512"><!--! Font Awesome Pro 6.4.0 by @fontawesome - https://fontawesome.com License - https://fontawesome.com/license (Commercial License) Copyright 2023 Fonticons, Inc. --><path d="M320 32H576c17.7 0 32 14.3 32 32V448c0 17.7-14.3 32-32 32H414.4c-2.4 11.8-7.4 22.7-14.4 32H576c35.3 0 64-28.7 64-64V64c0-35.3-28.7-64-64-64H320c-35.3 0-64 28.7-64 64V95.3l32 29.3V64c0-17.7 14.3-32 32-32zM496 208c-17.7 0-32 14.3-32 32v32c0 17.7 14.3 32 32 32h32c17.7 0 32-14.3 32-32V240c0-17.7-14.3-32-32-32H496zm0 32h32v32H496V240zM464 368v32c0 17.7 14.3 32 32 32h32c17.7 0 32-14.3 32-32V368c0-17.7-14.3-32-32-32H496c-17.7 0-32 14.3-32 32zm64 0v32H496V368h32zM368 80c-17.7 0-32 14.3-32 32v32c0 17.7 14.3 32 32 32h32c17.7 0 32-14.3 32-32V112c0-17.7-14.3-32-32-32H368zm0 32h32v32H368V112zm96 0v32c0 17.7 14.3 32 32 32h32c17.7 0 32-14.3 32-32V112c0-17.7-14.3-32-32-32H496c-17.7 0-32 14.3-32 32zm64 0v32H496V112h32zM32 284.2c0-9 3.8-17.5 10.4-23.6l128-117.3c12.2-11.2 31-11.2 43.2 0l128 117.3c6.6 6.1 10.4 14.6 10.4 23.6V448c0 17.7-14.3 32-32 32H64c-17.7 0-32-14.3-32-32V284.2zM0 448c0 35.3 28.7 64 64 64H320c35.3 0 64-28.7 64-64V284.2c0-17.9-7.5-35.1-20.8-47.2l-128-117.3c-24.5-22.4-62-22.4-86.5 0L20.8 237C7.5 249.1 0 266.2 0 284.2V448zM224 288v64H160V288h64zm-64-32c-17.7 0-32 14.3-32 32v64c0 17.7 14.3 32 32 32h64c17.7 0 32-14.3 32-32V288c0-17.7-14.3-32-32-32H160z"/></svg>
